!!!COM: Anon.
!!!OTL: O que tens hoje, o/ Irma
!!!OTL: Romanceiro Folclorico do Brasil
!!!CNT: Brasil
!!!OCY: Brasil
!!!ODT: <1971///
!!!PSR: Irmaos Vitale
!!!PSP: Sao Paulo, Brasil
!!!PDT: 1953///
!!!PPE: Rossini Tavares de Lima
!!!PPG: page 20
!! Romance: Juliana E D. Jorge
!! Place: Sao Jose do Rio Pardo, Sao Paulo, Brasil
**kern
*clefG2
*k[b-e-]
*M3/4
*MM100
4d
=
2g
4g
=
4g
4a
4b-
=
4a
2g
=
4r
4r
4g
=
2ee-
4ee-
=
4ee-
4b-
4cc
=
2.dd
=
4r
4r
4dd
=
2ee-
4g
=
4a
4b-
4dd
=
4cc
2b-
=
4r
4r
4g
=
4g
4a
4b-
=
4g
4b-
[4a
=
4a]
4r
4d
=
2g
4g
=
4g
4a
4b-
=
4a
2g
=
4r
4r
4g
=
2ee-
4ee-
=
4ee-
4b-
4cc
=
2.dd
=
4r
4r
4dd
=
2ee-
4g
=
4a
4b-
4dd
=
4cc
2b-
=
4r
4r
4g
=
4g
4a
4b-
=
4g
4b-
4a
=
4g
4r
==
*-
